svgs/sharp-light/files-medical.svg

<svg xmlns="http://www.w3.org/2000/svg" viewBox="0 0 448 512"><!--! Font Awesome Pro 6.6.0 by @fontawesome - https://fontawesome.com License - https://fontawesome.com/license (Commercial License) Copyright 2024 Fonticons, Inc. --><path d="M416 384l0-240-96 0-16 0 0-16 0-96L128 32l0 352 288 0zM390 112L336 57.5l0 54.5 54 0zM128 0L324 0 448 125l0 259 0 32-32 0-288 0-32 0 0-32L96 32 96 0l32 0zM32 96l0 16 0 368 304 0 16 0 0 32-16 0L16 512 0 512l0-16L0 112 0 96l32 0zm213.3 64l53.3 0 16 0 0 16 0 37.3 37.3 0 16 0 0 16 0 53.3 0 16-16 0-37.3 0 0 37.3 0 16-16 0-53.3 0-16 0 0-16 0-37.3-37.3 0-16 0 0-16 0-53.3 0-16 16 0 37.3 0 0-37.3 0-16 16 0zm16 69.3l0 16-16 0-37.3 0 0 21.3 37.3 0 16 0 0 16 0 37.3 21.3 0 0-37.3 0-16 16 0 37.3 0 0-21.3-37.3 0-16 0 0-16 0-37.3-21.3 0 0 37.3z"/></svg>

<svg xmlns="http://www.w3.org/2000/svg" viewBox="0 0 448 512"><!--! Font Awesome Pro 6.4.2 by @fontawesome - https://fontawesome.com License - https://fontawesome.com/license (Commercial License) Copyright 2023 Fonticons, Inc. --><path d="M416 384V144H320 304V128 32H128V384H416zM390 112L336 57.5V112h54zM128 0H324L448 125V384v32H416 128 96V384 32 0h32zM32 96v16V480H336h16v32H336 16 0V496 112 96H32zm213.3 64h53.3 16v16 37.3H352h16v16 53.3 16H352 314.7V336v16h-16H245.3h-16V336 298.7H192 176v-16V229.3v-16h16 37.3V176 160h16zm16 69.3v16h-16l-37.3 0v21.3h37.3 16v16V320h21.3V282.7v-16h16H336V245.3H298.7h-16v-16V192H261.3v37.3z"/></svg>
